docs/Widgets/org.openxtalk.hermann.polygon.1.2.2.svg

<?xml version="1.0" standalone="no"?><!DOCTYPE svg PUBLIC "-//W3C//DTD SVG 20010904//EN" "http://www.w3.org/TR/2001/REC-SVG-20010904/DTD/svg10.dtd"><svg version="1.0" xmlns="http://www.w3.org/2000/svg"preserveAspectRatio="xMidYMid meet"><path d="M0 63.5 C 0 127,0 127,109.5 127 C 219 127,219 127,219 63.5 C 219 0,219 0,109.5 0 C 0 0,0 0,0 63.5 M148 63 C 148 98,148 98,140.5 98 C 133 98,133 98,133 63 C 133 28,133 28,140.5 28 C 148 28,148 28,148 63 M50.347 36.364 C 63.873 40.546,70.164 51.350,66.418 63.966 C 63.687 73.161,54.638 78.834,40 80.528 C 34.5 81.165,34.5 81.165,34.5 89.332 C 34.5 97.5,34.5 97.5,26.250 97.790 C 18 98.081,18 98.081,18 65.892 C 18 33.703,18 33.703,31.750 34.284 C 39.430 34.609,47.640 35.527,50.347 36.364 M34 58.373 C 34 70,34 70,37.032 70 C 41.237 70,46.426 67.658,48.369 64.883 C 51.034 61.078,50.487 54.577,47.191 50.887 C 44.906 48.331,43.411 47.650,39.191 47.244 C 34 46.746,34 46.746,34 58.373 M106.239 49.372 C 123.594 54.595,129.396 77.180,117.001 91.261 C 112.054 96.882,105.828 99.496,97.5 99.449 C 89.554 99.404,84.579 97.574,79.387 92.789 C 73.951 87.778,71.483 81.544,71.553 72.997 C 71.698 55.310,88.330 43.982,106.239 49.372 M175.766 62.792 C 178.8 70.606,181.557 77,181.893 77 C 182.229 77,184.278 72.388,186.447 66.750 C 194.387 46.112,192.931 47.836,200.576 50.022 C 204.257 51.074,207.490 52.157,207.760 52.427 C 208.150 52.817,183.168 111.707,179.882 118.144 C 179.112 119.653,178.530 119.662,172.772 118.255 C 169.322 117.412,166.135 116.397,165.688 116 C 165.242 115.602,166.704 111.217,168.938 106.256 C 171.172 101.295,173 96.931,173 96.558 C 173 96.184,168.876 86.231,163.835 74.438 C 158.795 62.645,154.915 52.751,155.214 52.452 C 155.953 51.714,168.280 48.196,169.375 48.411 C 169.856 48.506,172.732 54.977,175.766 62.792 M92.117 61.631 C 84.832 66.733,85.583 82.665,93.297 86.654 C 95.805 87.950,96.997 88.018,100.240 87.046 C 106.548 85.156,109.463 76.807,106.960 67.795 C 105.062 60.963,97.534 57.837,92.117 61.631Z" /></svg>

<?xml version="1.0" encoding="utf-8"?>
<!-- Generator: Adobe Illustrator 26.5.0, SVG Export Plug-In . SVG Version: 6.00 Build 0)  -->
<svg version="1.1" id="Layer_1" xmlns="http://www.w3.org/2000/svg" xmlns:xlink="http://www.w3.org/1999/xlink" x="0px" y="0px"
	 viewBox="0 0 219 127" style="enable-background:new 0 0 219 127;" xml:space="preserve">
<path d="M0,63.5C0,127,0,127,109.5,127S219,127,219,63.5S219,0,109.5,0S0,0,0,63.5 M148,63c0,35,0,35-7.5,35s-7.5,0-7.5-35
	s0-35,7.5-35S148,28,148,63 M50.3,36.4c13.5,4.2,19.8,15,16.1,27.6C63.7,73.2,54.6,78.8,40,80.5c-5.5,0.6-5.5,0.6-5.5,8.8
	c0,8.2,0,8.2-8.2,8.5C18,98.1,18,98.1,18,65.9s0-32.2,13.8-31.6C39.4,34.6,47.6,35.5,50.3,36.4 M34,58.4C34,70,34,70,37,70
	c4.2,0,9.4-2.3,11.3-5.1c2.7-3.8,2.1-10.3-1.2-14c-2.3-2.6-3.8-3.2-8-3.6C34,46.7,34,46.7,34,58.4 M106.2,49.4
	c17.4,5.2,23.2,27.8,10.8,41.9c-4.9,5.6-11.2,8.2-19.5,8.2c-7.9,0-12.9-1.9-18.1-6.7c-5.4-5-7.9-11.2-7.8-19.8
	C71.7,55.3,88.3,44,106.2,49.4 M175.8,62.8c3,7.8,5.8,14.2,6.1,14.2s2.4-4.6,4.6-10.2c7.9-20.6,6.5-18.9,14.1-16.7
	c3.7,1.1,6.9,2.1,7.2,2.4c0.4,0.4-24.6,59.3-27.9,65.7c-0.8,1.5-1.4,1.5-7.1,0.1c-3.4-0.8-6.6-1.9-7.1-2.3c-0.4-0.4,1-4.8,3.2-9.7
	c2.2-5,4.1-9.3,4.1-9.7c0-0.4-4.1-10.3-9.2-22.1c-5-11.8-8.9-21.7-8.6-22c0.7-0.7,13.1-4.3,14.2-4C169.9,48.5,172.7,55,175.8,62.8
	 M92.1,61.6c-7.3,5.1-6.5,21,1.2,25c2.5,1.3,3.7,1.4,6.9,0.4c6.3-1.9,9.2-10.2,6.7-19.3C105.1,61,97.5,57.8,92.1,61.6z"/>
</svg>
